src/actions/16/office-chart-line-percentage.svg

<svg xmlns="http://www.w3.org/2000/svg" viewBox="0 0 16 16">
    <path d="M2 2v2.992H1V5h1v9h12v-1H3v-1h3v-.008l.008.008 2-2H9.6l2 2H14v-1h-1.986l-2-2h-2.42l-2 2H3V9h1.875l2-2H5.461l-1 1H3V5h1v-.008H3V2H2zm2 0v1h1v3h1V2H4zm4.5 0C7.669 2 7 2.669 7 3.5v1C7 5.331 7.669 6 8.5 6S10 5.331 10 4.5v-1C10 2.669 9.331 2 8.5 2zm4 0c-.831 0-1.5.669-1.5 1.5v1c0 .831.669 1.5 1.5 1.5S14 5.331 14 4.5v-1c0-.831-.669-1.5-1.5-1.5zm-4 1c.277 0 .5.223.5.5v1a.499.499 0 1 1-1 0v-1c0-.277.223-.5.5-.5zm4 0c.277 0 .5.223.5.5v1a.499.499 0 1 1-1 0v-1c0-.277.223-.5.5-.5z" style="fill:currentColor;fill-opacity:1;stroke:none;color:#050505;opacity:.7"/>
</svg>

<svg xmlns="http://www.w3.org/2000/svg" viewBox="0 0 16 16">
  <defs id="defs3051">
    <style type="text/css" id="current-color-scheme">
      .ColorScheme-Text {
        color:#363636;
      }
      </style>
  </defs>
 <path style="fill:currentColor;fill-opacity:1;stroke:none" 
     d="M 2 2 L 2 4.9921875 L 1 4.9921875 L 1 5 L 2 5 L 2 13 L 2 14 L 3 14 L 14 14 L 14 13 L 3 13 L 3 12 L 3.0078125 12 L 4 12 L 6 12 L 6 11.992188 L 6.0078125 12 L 8.0078125 10 L 9.5996094 10 L 11.599609 12 L 14 12 L 14 11 L 12.013672 11 L 10.013672 9 L 10 9 L 9.0078125 9 L 8.5996094 9 L 7.59375 9 L 5.59375 11 L 4 11 L 3.0078125 11 L 3 11 L 3 9 L 4.8730469 9 L 4.875 9 L 6.875 7 L 5.4609375 7 L 4.4609375 8 L 3 8 L 3 5 L 4 5 L 4 4.9921875 L 3 4.9921875 L 3 2 L 2 2 z M 4 2 L 4 3 L 5 3 L 5 6 L 6 6 L 6 2 L 5 2 L 4 2 z M 8.5 2 C 7.669 2 7 2.669 7 3.5 L 7 4.5 C 7 5.331 7.669 6 8.5 6 C 9.331 6 10 5.331 10 4.5 L 10 3.5 C 10 2.669 9.331 2 8.5 2 z M 12.5 2 C 11.669 2 11 2.669 11 3.5 L 11 4.5 C 11 5.331 11.669 6 12.5 6 C 13.331 6 14 5.331 14 4.5 L 14 3.5 C 14 2.669 13.331 2 12.5 2 z M 8.5 3 C 8.777 3 9 3.223 9 3.5 L 9 4.5 C 9 4.777 8.777 5 8.5 5 C 8.223 5 8 4.777 8 4.5 L 8 3.5 C 8 3.223 8.223 3 8.5 3 z M 12.5 3 C 12.777 3 13 3.223 13 3.5 L 13 4.5 C 13 4.777 12.777 5 12.5 5 C 12.223 5 12 4.777 12 4.5 L 12 3.5 C 12 3.223 12.223 3 12.5 3 z "
     class="ColorScheme-Text"
     />
</svg>
